archdroid-icon-theme/Archdroid-Amber/emblems/scalable/emblem-backbonejs.svg

<?xml version="1.0" encoding="UTF-8" standalone="no"?>
<!-- Created with Inkscape (http://www.inkscape.org/) -->

<svg
   xmlns:dc="http://purl.org/dc/elements/1.1/"
   xmlns:cc="http://creativecommons.org/ns#"
   xmlns:rdf="http://www.w3.org/1999/02/22-rdf-syntax-ns#"
   xmlns:svg="http://www.w3.org/2000/svg"
   xmlns="http://www.w3.org/2000/svg"
   xmlns:sodipodi="http://sodipodi.sourceforge.net/DTD/sodipodi-0.dtd"
   xmlns:inkscape="http://www.inkscape.org/namespaces/inkscape"
   width="36.51040649414062mm"
   height="45.37319946289062mm"
   viewBox="0 0 129.3675820660306 160.7711791954897"
   id="svg2"
   version="1.1"
   inkscape:version="0.91 r13725"
   sodipodi:docname="emblem-backbonejs.svg">
  <defs
     id="defs4" />
  <sodipodi:namedview
     id="base"
     pagecolor="#ffffff"
     bordercolor="#666666"
     borderopacity="1.0"
     inkscape:pageopacity="0.0"
     inkscape:pageshadow="2"
     inkscape:zoom="0.7888671874999998"
     inkscape:cx="47.98287540666615"
     inkscape:cy="362.0691768058268"
     inkscape:document-units="px"
     inkscape:current-layer="layer1"
     showgrid="false"
     fit-margin-top="0"
     fit-margin-left="0"
     fit-margin-right="0"
     fit-margin-bottom="0"
     inkscape:window-width="1366"
     inkscape:window-height="713"
     inkscape:window-x="0"
     inkscape:window-y="31"
     inkscape:window-maximized="1" />
  <metadata
     id="metadata7">
    <rdf:RDF>
      <cc:Work
         rdf:about="">
        <dc:format>image/svg+xml</dc:format>
        <dc:type
           rdf:resource="http://purl.org/dc/dcmitype/StillImage" />
        <dc:title></dc:title>
      </cc:Work>
    </rdf:RDF>
  </metadata>
  <g
     inkscape:label="Layer 1"
     inkscape:groupmode="layer"
     id="layer1"
     transform="translate(-139.4063298421578,-733.6601980101893)">
    <g
       transform="matrix(0.17893165,0,0,0.17893165,139.4957956671578,733.8141781082714)"
       id="Page 1"
       style="fill:#d8d8d8;fill-rule:evenodd">
      <g
         id="BackBone.JS">
        <path
           d="M 0,0 0,485 361,690.78502 361,550.90277 119.49609,413.23549 119.49609,197 361,334.66728 361,205.78502 0,0 Z m 0,0"
           id="Path"
           style="fill:#002a41;stroke:#848484;stroke-width:1"
           inkscape:connector-curvature="0" />
        <path
           d="M 722,0 722,485 361,690.78502 361,550.90277 602.50391,413.23549 602.50391,197 361,334.66728 361,205.78502 722,0 Z m 0,0"
           id="path2996"
           style="fill:#0071b5;stroke:#848484;stroke-width:1"
           inkscape:connector-curvature="0" />
        <path
           d="M 0,896.78502 0,411.78502 361,206 l 0,139.88225 -241.50391,137.66728 0,205.23549 L 361,551.11775 361,691 0,896.78502 Z m 0,0"
           id="path2998"
           style="fill:#0071b5;stroke:#848484;stroke-width:1"
           inkscape:connector-curvature="0" />
        <path
           d="M 722,896.78502 722,411.78502 361,206 l 0,139.88225 241.50391,137.66728 0,205.23549 L 361,551.11775 361,691 722,896.78502 Z m 0,0"
           id="path3000"
           style="fill:#002a41;stroke:#848484;stroke-width:1"
           inkscape:connector-curvature="0" />
      </g>
    </g>
  </g>
</svg>

<svg xmlns="http://www.w3.org/2000/svg" width="129.37" height="160.77" viewBox="0 0 129.3675820660306 160.7711791954897"><g transform="matrix(.17893 0 0 .17893.089.154)" fill="#d8d8d8" fill-rule="evenodd" stroke="#848484"><path d="m0 0v485l361 205.79v-139.88l-241.5-137.67v-216.24l241.5 137.67v-128.88l-361-205.79" fill="#002a41"/><g fill="#0071b5"><path d="m722 0v485l-361 205.79v-139.88l241.5-137.67v-216.24l-241.5 137.67v-128.88l361-205.79"/><path d="m0 896.79v-485l361-205.79v139.88l-241.5 137.67v205.24l241.5-137.67v139.88l-361 205.79"/></g><path d="m722 896.79v-485l-361-205.79v139.88l241.5 137.67v205.24l-241.5-137.67v139.88l361 205.79" fill="#002a41"/></g></svg>
